platform/icons/src/nodes/abstractClass@2x.svg

<svg id="Layer_1" data-name="Layer 1" xmlns="http://www.w3.org/2000/svg" viewBox="0 0 32 32">
  <title>abstractClass@2x</title>
  <g>
    <path d="M22,3.36522a13.86717,13.86717,0,0,0-12,0V28.63475a13.86717,13.86717,0,0,0,12,0V3.36522Z" fill="#40b6e0" opacity="0.5" style="isolation: isolate"/>
    <path d="M21.23186,19.96312l-1.0814-1.10674a4.95515,4.95515,0,0,1-3.76821,1.56092,4.2471,4.2471,0,0,1-4.05469-4.41708V15.967a4.28989,4.28989,0,0,1,4.12959-4.44441l0.041-.00131A5.2348,5.2348,0,0,1,20.14461,12.947l1.02231-1.10934a6.267,6.267,0,0,0-4.6062-1.8374H16.1971a6.05971,6.05971,0,0,0-6.19589,5.9204l-0.00129.0796V16.033a5.9881,5.9881,0,0,0,6.00476,5.96729h0.50721A6.24735,6.24735,0,0,0,21.23186,19.96312Z" fill="#231f20" opacity="0.6" style="isolation: isolate"/>
    <path d="M8,4.52A13.9825,13.9825,0,0,0,8,27.48V4.52Z" fill="#9aa7b0" opacity="0.6" style="isolation: isolate"/>
    <path d="M24,4.52V27.48A13.9825,13.9825,0,0,0,24,4.52Z" fill="#9aa7b0" opacity="0.6" style="isolation: isolate"/>
  </g>
</svg>

<svg id="Layer_1" data-name="Layer 1" xmlns="http://www.w3.org/2000/svg" width="32" height="32" viewBox="0 0 32 32">
  <title>abstractClass@2x</title>
  <g>
    <g>
      <path d="M6,6.21094A13.97821,13.97821,0,0,0,6,25.78906Z" fill="#9aa7b0" opacity="0.7"/>
      <path d="M26,6.21094V25.78906A13.97821,13.97821,0,0,0,26,6.21094Z" fill="#9aa7b0" opacity="0.7"/>
      <g opacity="0.6">
        <path d="M24,4.51953a13.96055,13.96055,0,0,0-16,0V27.48047a13.96055,13.96055,0,0,0,16,0Z" fill="#40b6e0"/>
      </g>
    </g>
    <path d="M21.23193,19.96289l-1.08139-1.10674a4.95518,4.95518,0,0,1-3.76822,1.56093A4.24711,4.24711,0,0,1,12.32764,16v-.0332a4.28989,4.28989,0,0,1,4.17062-4.44573A5.23219,5.23219,0,0,1,20.14,12.94235L21.167,11.8374A6.267,6.267,0,0,0,16.5608,10h-.36362A6.05971,6.05971,0,0,0,10,16v.03271A5.9881,5.9881,0,0,0,16.00476,22H16.512A6.24731,6.24731,0,0,0,21.23193,19.96289Z" fill="#231f20" opacity="0.7"/>
  </g>
</svg>
